X:05
T:Sicilian Dance. ET.05
M:6/8
L:1/8
Q:1/4=120
S:Eliza Tennyson MS, Lincolnshire,1822
R:jig
O:England;Lincolnshire;Somersby
Z:vmp.R.Greig 2011 <http://www.village-music-project.org.uk>
K:F
FGF AGF|c2cc2B|Acf c2B|ABG F2F|!
FGF AGF|c2cc2f|edc GAB|c3c2:|!
e/f/|g2cb2a|gfe f2f|gec b2a|gfef2c|!
Bbb caa|Bgg Aff”^bar line added”|BAGc2E|F3F2:|!
A|A3 GFG|F2FF2c|c3BAB|A2AA2f|!
f2ee2d|d2cc2B|ABc cBA”^bar line added”|A3A2||!
“_duplicated quaver omitted”c|b3bge|f2ff2c|b3bge|f2ff2c|!
dbb caa|Bgg Aff|BAG c2C|F3F2|]

